; generated by Slic3r 0.9.9 on 2014-06-18 at 12:17:31

; layer_height = 0.2
; perimeters = 3
; top_solid_layers = 3
; bottom_solid_layers = 3
; fill_density = 0.2
; perimeter_speed = 36
; infill_speed = 60
; travel_speed = 130
; nozzle_diameter = 0.35
; filament_diameter = 1.75
; extrusion_multiplier = 1
; perimeters extrusion width = 0.52mm
; infill extrusion width = 0.52mm
; solid infill extrusion width = 0.52mm
; top infill extrusion width = 0.52mm
; support material extrusion width = 0.52mm
; first layer extrusion width = 0.60mm

G21 ; set units to millimeters
M107 ; disable fan
M190 S100 ; wait for bed temperature to be reached
M104 S225 ; set temperature
G28 ; home all axes
G1 Z5 F5000 ; lift nozzle
M109 S225 ; wait for temperature to be reached
G90 ; use absolute coordinates
G92 E0 ; reset extrusion distance
M82 ; use absolute distances for extrusion
G1 F1800.000 E-1.00000 ; retract
G92 E0 ; reset extrusion distance
G1 Z0.300 F7800.000 ; move to next layer (0)
G1 X63.310 Y76.390 ; move to first skirt point
G1 F1800.000 E1.00000 ; compensate retraction
G1 X63.720 Y76.110 F756.000 E1.03383 ; skirt
G1 X65.570 Y75.020 E1.18015 ; skirt
G1 X65.970 Y74.820 E1.21063 ; skirt
G1 X66.610 Y74.610 E1.25653 ; skirt
G1 X66.840 Y74.570 E1.27244 ; skirt
G1 X67.290 Y74.530 E1.30322 ; skirt
G1 X112.640 Y73.450 E4.39442 ; skirt
G1 X128.650 Y73.450 E5.48540 ; skirt
G1 X129.030 Y73.470 E5.51133 ; skirt
G1 X129.400 Y73.530 E5.53687 ; skirt
G1 X133.730 Y74.710 E5.84269 ; skirt
G1 X134.080 Y74.850 E5.86838 ; skirt
G1 X134.420 Y75.020 E5.89428 ; skirt
G1 X136.380 Y76.180 E6.04948 ; skirt
G1 X136.680 Y76.390 E6.07444 ; skirt
G1 X138.060 Y77.570 E6.19817 ; skirt
G1 X138.400 Y77.900 E6.23045 ; skirt
G1 X139.380 Y78.990 E6.33034 ; skirt
G1 X139.740 Y79.460 E6.37068 ; skirt
G1 X140.430 Y80.550 E6.45859 ; skirt
G1 X141.200 Y81.910 E6.56509 ; skirt
G1 X141.420 Y82.440 E6.60419 ; skirt
G1 X142.180 Y84.790 E6.77249 ; skirt
G1 X142.290 Y85.360 E6.81205 ; skirt
G1 X142.520 Y87.550 E6.96211 ; skirt
G1 X142.540 Y87.920 E6.98736 ; skirt
G1 X142.550 Y121.230 E9.25723 ; skirt
G1 X142.490 Y122.690 E9.35680 ; skirt
G1 X142.380 Y123.780 E9.43145 ; skirt
G1 X142.180 Y125.060 E9.51974 ; skirt
G1 X142.060 Y125.590 E9.55677 ; skirt
G1 X141.710 Y126.680 E9.63478 ; skirt
G1 X141.220 Y127.960 E9.72818 ; skirt
G1 X140.980 Y128.470 E9.76658 ; skirt
G1 X140.180 Y129.840 E9.87469 ; skirt
G1 X139.410 Y130.930 E9.96563 ; skirt
G1 X139.160 Y131.240 E9.99277 ; skirt
G1 X138.000 Y132.530 E10.11099 ; skirt
G1 X137.700 Y132.790 E10.13804 ; skirt
G1 X136.290 Y133.880 E10.25949 ; skirt
G1 X135.780 Y134.200 E10.30052 ; skirt
G1 X133.720 Y135.290 E10.45933 ; skirt
G1 X133.190 Y135.520 E10.49870 ; skirt
G1 X129.730 Y136.680 E10.74738 ; skirt
G1 X129.280 Y136.770 E10.77865 ; skirt
G1 X129.050 Y136.790 E10.79438 ; skirt
G1 X71.340 Y136.800 E14.72696 ; skirt
G1 X70.900 Y136.770 E14.75701 ; skirt
G1 X70.470 Y136.690 E14.78681 ; skirt
G1 X66.730 Y135.500 E15.05426 ; skirt
G1 X66.380 Y135.350 E15.08021 ; skirt
G1 X64.210 Y134.200 E15.24756 ; skirt
G1 X63.700 Y133.880 E15.28859 ; skirt
G1 X62.290 Y132.790 E15.41003 ; skirt
G1 X61.990 Y132.530 E15.43709 ; skirt
G1 X60.830 Y131.240 E15.55531 ; skirt
G1 X60.580 Y130.930 E15.58244 ; skirt
G1 X59.810 Y129.840 E15.67338 ; skirt
G1 X59.010 Y128.470 E15.78149 ; skirt
G1 X58.770 Y127.960 E15.81990 ; skirt
G1 X58.280 Y126.680 E15.91330 ; skirt
G1 X57.930 Y125.590 E15.99131 ; skirt
G1 X57.810 Y125.060 E16.02834 ; skirt
G1 X57.610 Y123.780 E16.11662 ; skirt
G1 X57.500 Y122.690 E16.19128 ; skirt
G1 X57.450 Y121.330 E16.28402 ; skirt
G1 X57.450 Y87.920 E18.56070 ; skirt
G1 X57.470 Y87.550 E18.58595 ; skirt
G1 X57.700 Y85.360 E18.73600 ; skirt
G1 X57.850 Y84.650 E18.78545 ; skirt
G1 X58.670 Y82.170 E18.96345 ; skirt
G1 X58.790 Y81.910 E18.98296 ; skirt
G1 X59.560 Y80.550 E19.08946 ; skirt
G1 X60.250 Y79.460 E19.17737 ; skirt
G1 X60.610 Y78.990 E19.21771 ; skirt
G1 X61.590 Y77.900 E19.31759 ; skirt
G1 X61.930 Y77.570 E19.34988 ; skirt
G1 X63.249 Y76.444 E19.46803 ; skirt
G1 F1800.000 E18.46803 ; retract
G92 E0 ; reset extrusion distance
G1 X69.401 Y109.217 F7800.000 ; move to first brim point
G1 F1800.000 E1.00000 ; compensate retraction
G1 X69.542 Y109.192 F756.000 E1.00974 ; brim
G1 X131.573 Y109.192 E5.23675 ; brim
G1 X132.053 Y109.672 E5.28301 ; brim
G1 X132.053 Y110.285 E5.32476 ; brim
G1 X133.565 Y110.285 E5.42779 ; brim
G1 X133.805 Y110.361 E5.44495 ; brim
G1 X136.311 Y112.111 E5.65326 ; brim
G1 X136.446 Y112.507 E5.68174 ; brim
G1 X136.693 Y112.620 E5.70025 ; brim
G1 X138.601 Y114.848 E5.90013 ; brim
G1 X138.507 Y115.053 E5.91549 ; brim
G1 X139.582 Y117.211 E6.07981 ; brim
G1 X139.509 Y117.329 E6.08926 ; brim
G1 X140.076 Y119.539 E6.24470 ; brim
G1 X139.993 Y119.646 E6.25394 ; brim
G1 X140.172 Y121.830 E6.40327 ; brim
G1 X140.140 Y121.864 E6.40646 ; brim
G1 X139.920 Y123.955 E6.54969 ; brim
G1 X140.006 Y124.073 E6.55966 ; brim
G1 X139.298 Y126.254 E6.71594 ; brim
G1 X139.383 Y126.402 E6.72760 ; brim
G1 X138.104 Y128.618 E6.90197 ; brim
G1 X138.158 Y128.741 E6.91109 ; brim
G1 X136.161 Y130.958 E7.11444 ; brim
G1 X135.843 Y131.100 E7.13818 ; brim
G1 X135.743 Y131.100 E7.14503 ; brim
G1 X135.520 Y131.600 E7.18236 ; brim
G1 X132.434 Y133.237 E7.42037 ; brim
G1 X132.239 Y133.285 E7.43405 ; brim
G1 X130.541 Y133.285 E7.54976 ; brim
G1 X130.541 Y133.898 E7.59151 ; brim
G1 X130.061 Y134.378 E7.63777 ; brim
G1 X71.231 Y134.378 E11.64668 ; brim
G1 X71.105 Y134.358 E11.65537 ; brim
G1 X66.572 Y132.904 E11.97973 ; brim
G1 X66.255 Y132.389 E12.02100 ; brim
G1 X66.285 Y132.193 E12.03451 ; brim
G1 X65.637 Y132.193 E12.07867 ; brim
G1 X65.379 Y132.104 E12.09724 ; brim
G1 X63.063 Y130.311 E12.29690 ; brim
G1 X62.943 Y129.913 E12.32520 ; brim
G1 X62.769 Y129.822 E12.33858 ; brim
G1 X61.180 Y127.559 E12.52707 ; brim
G1 X61.197 Y127.525 E12.52961 ; brim
G1 X60.354 Y125.293 E12.69223 ; brim
G1 X60.292 Y125.240 E12.69777 ; brim
G1 X59.954 Y123.007 E12.85165 ; brim
G1 X59.936 Y122.989 E12.85342 ; brim
G1 X59.860 Y120.618 E13.01509 ; brim
G1 X59.921 Y120.555 E13.02105 ; brim
G1 X60.152 Y118.355 E13.17181 ; brim
G1 X60.191 Y118.320 E13.17534 ; brim
G1 X60.918 Y116.075 E13.33615 ; brim
G1 X62.242 Y113.783 E13.51655 ; brim
G1 X62.271 Y113.766 E13.51886 ; brim
G1 X62.238 Y113.681 E13.52504 ; brim
G1 X64.518 Y111.496 E13.74029 ; brim
G1 X64.812 Y111.378 E13.76189 ; brim
G1 X65.010 Y111.378 E13.77538 ; brim
G1 X64.984 Y111.228 E13.78572 ; brim
G1 X65.283 Y110.712 E13.82639 ; brim
G1 X69.324 Y109.245 E14.11938 ; brim
G1 F1800.000 E13.11938 ; retract
G92 E0 ; reset extrusion distance
G1 X70.627 Y101.042 F7800.000 ; move to first brim point
G1 F1800.000 E1.00000 ; compensate retraction
G1 X65.861 Y99.607 F756.000 E1.33913 ; brim
G1 X65.534 Y99.092 E1.38068 ; brim
G1 X65.567 Y98.874 E1.39574 ; brim
G1 X65.177 Y98.874 E1.42225 ; brim
G1 X64.900 Y98.770 E1.44242 ; brim
G1 X62.407 Y96.608 E1.66731 ; brim
G1 X62.452 Y96.487 E1.67610 ; brim
G1 X61.076 Y94.241 E1.85561 ; brim
G1 X61.006 Y94.190 E1.86149 ; brim
G1 X60.295 Y92.002 E2.01828 ; brim
G1 X60.179 Y91.897 E2.02899 ; brim
G1 X59.950 Y89.721 E2.17803 ; brim
G1 X59.878 Y89.648 E2.18504 ; brim
G1 X59.893 Y87.277 E2.34665 ; brim
G1 X59.957 Y87.213 E2.35280 ; brim
G1 X60.186 Y85.036 E2.50198 ; brim
G1 X60.323 Y84.912 E2.51459 ; brim
G1 X61.028 Y82.743 E2.67004 ; brim
G1 X61.099 Y82.691 E2.67601 ; brim
G1 X62.503 Y80.454 E2.85599 ; brim
G1 X62.452 Y80.315 E2.86608 ; brim
G1 X65.002 Y78.159 E3.09360 ; brim
G1 X65.275 Y78.059 E3.11341 ; brim
G1 X65.652 Y78.059 E3.13910 ; brim
G1 X65.652 Y77.446 E3.18084 ; brim
G1 X66.132 Y76.966 E3.22711 ; brim
G1 X111.008 Y76.966 E6.28514 ; brim
G1 X111.008 Y76.354 E6.32688 ; brim
G1 X111.488 Y75.874 E6.37315 ; brim
G1 X129.898 Y75.874 E7.62768 ; brim
G1 X130.378 Y76.354 E7.67395 ; brim
G1 X130.378 Y76.966 E7.71570 ; brim
G1 X132.822 Y76.966 E7.88221 ; brim
G1 X133.035 Y77.025 E7.89725 ; brim
G1 X135.870 Y78.707 E8.12192 ; brim
G1 X136.049 Y79.152 E8.15457 ; brim
G1 X136.388 Y79.293 E8.17960 ; brim
G1 X138.385 Y81.511 E8.38295 ; brim
G1 X138.295 Y81.712 E8.39792 ; brim
G1 X139.520 Y83.852 E8.56595 ; brim
G1 X139.400 Y84.058 E8.58217 ; brim
G1 X140.081 Y86.181 E8.73410 ; brim
G1 X139.953 Y86.356 E8.74887 ; brim
G1 X140.170 Y88.419 E8.89017 ; brim
G1 X140.185 Y88.436 E8.89173 ; brim
G1 X139.960 Y90.581 E9.03874 ; brim
G1 X140.080 Y90.744 E9.05251 ; brim
G1 X139.422 Y92.884 E9.20512 ; brim
G1 X139.533 Y93.072 E9.21997 ; brim
G1 X138.348 Y95.202 E9.38608 ; brim
G1 X138.445 Y95.422 E9.40245 ; brim
G1 X136.448 Y97.639 E9.60580 ; brim
G1 X136.131 Y97.781 E9.62951 ; brim
G1 X135.963 Y98.209 E9.66083 ; brim
G1 X133.196 Y99.905 E9.88199 ; brim
G1 X132.978 Y99.967 E9.89744 ; brim
G1 X130.870 Y99.967 E10.04109 ; brim
G1 X130.870 Y100.579 E10.08284 ; brim
G1 X130.390 Y101.059 E10.12910 ; brim
G1 X70.708 Y101.054 E14.19604 ; brim
G1 F1800.000 E13.19604 ; retract
G92 E0 ; reset extrusion distance
G1 X69.590 Y109.739 F7800.000 ; move to first brim point
G1 F1800.000 E1.00000 ; compensate retraction
G1 X131.347 Y109.739 F756.000 E5.20833 ; brim
G1 X131.507 Y109.899 E5.22375 ; brim
G1 X131.507 Y110.725 E5.28006 ; brim
G1 X131.400 Y110.831 E5.29031 ; brim
G1 X133.481 Y110.831 E5.43210 ; brim
G1 X133.561 Y110.856 E5.43782 ; brim
G1 X135.852 Y112.457 E5.62822 ; brim
G1 X135.909 Y112.626 E5.64042 ; brim
G1 X135.803 Y112.964 E5.66460 ; brim
G1 X135.732 Y113.017 E5.67061 ; brim
G1 X136.247 Y113.017 E5.70571 ; brim
G1 X136.355 Y113.067 E5.71386 ; brim
G1 X137.958 Y114.938 E5.88174 ; brim
G1 X137.837 Y115.202 E5.90157 ; brim
G1 X137.879 Y115.202 E5.90447 ; brim
G1 X138.011 Y115.284 E5.91506 ; brim
G1 X138.957 Y117.182 E6.05960 ; brim
G1 X138.830 Y117.387 E6.07604 ; brim
G1 X138.989 Y117.502 E6.08941 ; brim
G1 X139.480 Y119.415 E6.22398 ; brim
G1 X139.331 Y119.607 E6.24056 ; brim
G1 X139.450 Y119.717 E6.25163 ; brim
G1 X139.608 Y121.636 E6.38279 ; brim
G1 X139.457 Y121.799 E6.39795 ; brim
G1 X139.583 Y121.939 E6.41076 ; brim
G1 X139.381 Y123.857 E6.54218 ; brim
G1 X139.256 Y123.970 E6.55366 ; brim
G1 X139.401 Y124.169 E6.57043 ; brim
G1 X138.780 Y126.078 E6.70725 ; brim
G1 X138.626 Y126.183 E6.71996 ; brim
G1 X138.752 Y126.402 E6.73724 ; brim
G1 X137.660 Y128.295 E6.88616 ; brim
G1 X137.533 Y128.368 E6.89614 ; brim
G1 X137.394 Y128.368 E6.90557 ; brim
G1 X137.515 Y128.639 E6.92575 ; brim
G1 X135.833 Y130.506 E7.09701 ; brim
G1 X135.727 Y130.554 E7.10492 ; brim
G1 X134.990 Y130.554 E7.15513 ; brim
G1 X135.070 Y130.616 E7.16202 ; brim
G1 X135.174 Y131.034 E7.19137 ; brim
G1 X135.097 Y131.206 E7.20420 ; brim
G1 X132.237 Y132.723 E7.42482 ; brim
G1 X132.172 Y132.739 E7.42938 ; brim
G1 X129.888 Y132.739 E7.58501 ; brim
G1 X129.995 Y132.845 E7.59526 ; brim
G1 X129.995 Y133.672 E7.65157 ; brim
G1 X129.835 Y133.832 E7.66699 ; brim
G1 X71.231 Y133.825 E11.66044 ; brim
G1 X66.932 Y132.445 E11.96816 ; brim
G1 X66.826 Y132.274 E11.98191 ; brim
G1 X66.912 Y131.724 E12.01983 ; brim
G1 X67.002 Y131.646 E12.02796 ; brim
G1 X65.728 Y131.646 E12.11480 ; brim
G1 X65.642 Y131.617 E12.12099 ; brim
G1 X63.536 Y129.986 E12.30252 ; brim
G1 X63.485 Y129.818 E12.31446 ; brim
G1 X63.591 Y129.509 E12.33672 ; brim
G1 X63.658 Y129.461 E12.34238 ; brim
G1 X63.258 Y129.461 E12.36966 ; brim
G1 X63.140 Y129.399 E12.37876 ; brim
G1 X61.817 Y127.516 E12.53555 ; brim
G1 X61.943 Y127.275 E12.55404 ; brim
G1 X61.790 Y127.275 E12.56443 ; brim
G1 X61.650 Y127.178 E12.57605 ; brim
G1 X60.930 Y125.272 E12.71492 ; brim
G1 X61.056 Y125.090 E12.72999 ; brim
G1 X60.956 Y125.090 E12.73681 ; brim
G1 X60.802 Y124.958 E12.75062 ; brim
G1 X60.512 Y123.041 E12.88273 ; brim
G1 X60.631 Y122.902 E12.89519 ; brim
G1 X60.475 Y122.751 E12.91005 ; brim
G1 X60.414 Y120.832 E13.04088 ; brim
G1 X60.587 Y120.666 E13.05722 ; brim
G1 X60.472 Y120.538 E13.06888 ; brim
G1 X60.674 Y118.621 E13.20030 ; brim
G1 X60.830 Y118.480 E13.21459 ; brim
G1 X60.894 Y118.480 E13.21896 ; brim
G1 X60.769 Y118.309 E13.23341 ; brim
G1 X61.389 Y116.399 E13.37022 ; brim
G1 X61.533 Y116.295 E13.38232 ; brim
G1 X61.676 Y116.295 E13.39206 ; brim
G1 X61.549 Y116.075 E13.40933 ; brim
G1 X62.642 Y114.183 E13.55826 ; brim
G1 X62.769 Y114.109 E13.56823 ; brim
G1 X62.998 Y114.109 E13.58388 ; brim
G1 X62.882 Y113.820 E13.60511 ; brim
G1 X64.820 Y111.963 E13.78799 ; brim
G1 X64.918 Y111.924 E13.79519 ; brim
G1 X65.736 Y111.924 E13.85097 ; brim
G1 X65.648 Y111.850 E13.85884 ; brim
G1 X65.556 Y111.330 E13.89483 ; brim
G1 X65.656 Y111.157 E13.90838 ; brim
G1 X69.511 Y109.759 E14.18782 ; brim
G1 F1800.000 E13.18782 ; retract
G92 E0 ; reset extrusion distance
G1 X70.786 Y100.513 F7800.000 ; move to first brim point
G1 F1800.000 E1.00000 ; compensate retraction
G1 X66.213 Y99.143 F756.000 E1.32525 ; brim
G1 X66.104 Y98.971 E1.33910 ; brim
G1 X66.188 Y98.407 E1.37797 ; brim
G1 X66.279 Y98.328 E1.38623 ; brim
G1 X65.276 Y98.328 E1.45459 ; brim
G1 X65.184 Y98.293 E1.46131 ; brim
G1 X63.052 Y96.444 E1.65363 ; brim
G1 X63.164 Y96.142 E1.67557 ; brim
G1 X62.953 Y96.142 E1.68994 ; brim
G1 X62.829 Y96.072 E1.69969 ; brim
G1 X61.680 Y94.182 E1.85044 ; brim
G1 X61.806 Y93.957 E1.86802 ; brim
G1 X61.615 Y93.957 E1.88106 ; brim
G1 X61.471 Y93.852 E1.89315 ; brim
G1 X60.851 Y91.943 E2.02997 ; brim
G1 X60.975 Y91.771 E2.04442 ; brim
G1 X60.856 Y91.771 E2.05256 ; brim
G1 X60.700 Y91.631 E2.06685 ; brim
G1 X60.499 Y89.713 E2.19826 ; brim
G1 X60.613 Y89.586 E2.20992 ; brim
G1 X60.586 Y89.586 E2.21178 ; brim
G1 X60.425 Y89.425 E2.22728 ; brim
G1 X60.438 Y87.506 E2.35805 ; brim
G1 X60.598 Y87.347 E2.37340 ; brim
G1 X60.620 Y87.347 E2.37493 ; brim
G1 X60.506 Y87.220 E2.38658 ; brim
G1 X60.707 Y85.302 E2.51800 ; brim
G1 X60.863 Y85.161 E2.53229 ; brim
G1 X60.997 Y85.161 E2.54143 ; brim
G1 X60.873 Y84.990 E2.55588 ; brim
G1 X61.493 Y83.080 E2.69270 ; brim
G1 X61.637 Y82.976 E2.70480 ; brim
G1 X61.835 Y82.976 E2.71831 ; brim
G1 X61.709 Y82.748 E2.73609 ; brim
G1 X62.894 Y80.859 E2.88806 ; brim
G1 X63.018 Y80.791 E2.89767 ; brim
G1 X63.208 Y80.791 E2.91066 ; brim
G1 X63.097 Y80.486 E2.93278 ; brim
G1 X65.281 Y78.639 E3.12769 ; brim
G1 X65.372 Y78.605 E3.13429 ; brim
G1 X66.304 Y78.605 E3.19786 ; brim
G1 X66.198 Y78.499 E3.20811 ; brim
G1 X66.198 Y77.673 E3.26442 ; brim
G1 X66.358 Y77.513 E3.27984 ; brim
G1 X111.661 Y77.513 E6.36692 ; brim
G1 X111.554 Y77.406 E6.37717 ; brim
G1 X111.554 Y76.580 E6.43348 ; brim
G1 X111.714 Y76.420 E6.44890 ; brim
G1 X129.672 Y76.420 E7.67260 ; brim
G1 X129.832 Y76.580 E7.68802 ; brim
G1 X129.832 Y77.406 E7.74433 ; brim
G1 X129.725 Y77.513 E7.75458 ; brim
G1 X132.748 Y77.513 E7.96055 ; brim
G1 X132.819 Y77.532 E7.96556 ; brim
G1 X135.432 Y79.083 E8.17264 ; brim
G1 X135.501 Y79.254 E8.18522 ; brim
G1 X135.395 Y79.640 E8.21247 ; brim
G1 X135.319 Y79.698 E8.21902 ; brim
G1 X135.954 Y79.698 E8.26225 ; brim
G1 X136.060 Y79.745 E8.27016 ; brim
G1 X137.741 Y81.613 E8.44142 ; brim
G1 X137.621 Y81.883 E8.46160 ; brim
G1 X137.679 Y81.883 E8.46558 ; brim
G1 X137.806 Y81.957 E8.47559 ; brim
G1 X138.889 Y83.850 E8.62420 ; brim
G1 X138.750 Y84.091 E8.64314 ; brim
G1 X138.864 Y84.174 E8.65275 ; brim
G1 X139.476 Y86.083 E8.78941 ; brim
G1 X139.311 Y86.308 E8.80836 ; brim
G1 X139.408 Y86.395 E8.81719 ; brim
G1 X139.609 Y88.312 E8.94860 ; brim
G1 X139.474 Y88.462 E8.96236 ; brim
G1 X139.616 Y88.620 E8.97683 ; brim
G1 X139.415 Y90.538 E9.10825 ; brim
G1 X139.315 Y90.628 E9.11739 ; brim
G1 X139.477 Y90.847 E9.13591 ; brim
G1 X138.890 Y92.757 E9.27209 ; brim
G1 X138.767 Y92.848 E9.28251 ; brim
G1 X138.903 Y93.080 E9.30084 ; brim
G1 X137.849 Y94.974 E9.44856 ; brim
G1 X137.721 Y95.049 E9.45869 ; brim
G1 X137.681 Y95.049 E9.46141 ; brim
G1 X137.802 Y95.320 E9.48158 ; brim
G1 X136.120 Y97.188 E9.65284 ; brim
G1 X136.014 Y97.235 E9.66076 ; brim
G1 X135.406 Y97.235 E9.70216 ; brim
G1 X135.482 Y97.292 E9.70860 ; brim
G1 X135.588 Y97.668 E9.73525 ; brim
G1 X135.521 Y97.839 E9.74775 ; brim
G1 X132.975 Y99.400 E9.95126 ; brim
G1 X132.902 Y99.420 E9.95641 ; brim
G1 X130.217 Y99.420 E10.13938 ; brim
G1 X130.323 Y99.527 E10.14964 ; brim
G1 X130.323 Y100.353 E10.20594 ; brim
G1 X130.163 Y100.513 E10.22136 ; brim
