; generated by Slic3r 0.9.9 on 2014-04-09 at 14:56:04

; layer_height = 0.2
; perimeters = 3
; top_solid_layers = 3
; bottom_solid_layers = 3
; fill_density = 0.2
; perimeter_speed = 36
; infill_speed = 60
; travel_speed = 130
; nozzle_diameter = 0.35
; filament_diameter = 1.75
; extrusion_multiplier = 1
; perimeters extrusion width = 0.52mm
; infill extrusion width = 0.52mm
; solid infill extrusion width = 0.52mm
; top infill extrusion width = 0.52mm
; support material extrusion width = 0.52mm
; first layer extrusion width = 0.60mm

G21 ; set units to millimeters
M107 ; disable fan
M190 S95 ; wait for bed temperature to be reached
M104 S225 ; set temperature
G28 ; home all axes
G1 Z5 F5000 ; lift nozzle
M109 S225 ; wait for temperature to be reached
G90 ; use absolute coordinates
G92 E0 ; reset extrusion distance
M82 ; use absolute distances for extrusion
G1 F1800.000 E-1.00000 ; retract
G92 E0 ; reset extrusion distance
G1 Z0.300 F7800.000 ; move to next layer (0)
G1 X76.730 Y77.490 ; move to first skirt point
G1 F1800.000 E1.00000 ; compensate retraction
G1 X88.310 Y66.500 F756.000 E2.08790 ; skirt
G1 X88.740 Y66.150 E2.12569 ; skirt
G1 X90.320 Y65.060 E2.25649 ; skirt
G1 X90.710 Y64.820 E2.28769 ; skirt
G1 X92.840 Y63.730 E2.45074 ; skirt
G1 X93.180 Y63.580 E2.47606 ; skirt
G1 X93.520 Y63.470 E2.50042 ; skirt
G1 X98.940 Y62.280 E2.87855 ; skirt
G1 X99.400 Y62.250 E2.90996 ; skirt
G1 X100.590 Y62.250 E2.99106 ; skirt
G1 X101.050 Y62.280 E3.02247 ; skirt
G1 X101.350 Y62.340 E3.04332 ; skirt
G1 X106.640 Y63.520 E3.41266 ; skirt
G1 X107.150 Y63.730 E3.45024 ; skirt
G1 X109.280 Y64.820 E3.61329 ; skirt
G1 X109.670 Y65.060 E3.64449 ; skirt
G1 X111.250 Y66.150 E3.77529 ; skirt
G1 X111.680 Y66.500 E3.81308 ; skirt
G1 X123.260 Y77.490 E4.90098 ; skirt
G1 X124.350 Y78.580 E5.00602 ; skirt
G1 X124.620 Y78.890 E5.03404 ; skirt
G1 X124.780 Y79.110 E5.05257 ; skirt
G1 X125.600 Y80.330 E5.15274 ; skirt
G1 X125.750 Y80.590 E5.17320 ; skirt
G1 X126.310 Y81.950 E5.27342 ; skirt
G1 X126.430 Y82.310 E5.29928 ; skirt
G1 X126.740 Y83.400 E5.37650 ; skirt
G1 X126.840 Y83.850 E5.40792 ; skirt
G1 X132.630 Y122.800 E8.09128 ; skirt
G1 X132.770 Y123.990 E8.17293 ; skirt
G1 X132.800 Y124.410 E8.20162 ; skirt
G1 X132.800 Y128.780 E8.49941 ; skirt
G1 X132.690 Y130.160 E8.59375 ; skirt
G1 X132.610 Y130.690 E8.63027 ; skirt
G1 X132.310 Y131.960 E8.71920 ; skirt
G1 X132.120 Y132.450 E8.75501 ; skirt
G1 X131.380 Y133.870 E8.86412 ; skirt
G1 X131.270 Y134.040 E8.87792 ; skirt
G1 X130.910 Y134.500 E8.91773 ; skirt
G1 X129.710 Y135.750 E9.03580 ; skirt
G1 X129.530 Y135.910 E9.05222 ; skirt
G1 X129.140 Y136.180 E9.08454 ; skirt
G1 X128.940 Y136.300 E9.10043 ; skirt
G1 X128.500 Y136.490 E9.13309 ; skirt
G1 X125.450 Y137.590 E9.35403 ; skirt
G1 X124.980 Y137.720 E9.38726 ; skirt
G1 X124.500 Y137.790 E9.42032 ; skirt
G1 X124.250 Y137.800 E9.43737 ; skirt
G1 X75.740 Y137.800 E12.74302 ; skirt
G1 X75.490 Y137.790 E12.76007 ; skirt
G1 X75.010 Y137.720 E12.79313 ; skirt
G1 X74.540 Y137.590 E12.82636 ; skirt
G1 X71.490 Y136.490 E13.04730 ; skirt
G1 X71.050 Y136.300 E13.07996 ; skirt
G1 X70.650 Y136.050 E13.11210 ; skirt
G1 X70.280 Y135.750 E13.14456 ; skirt
G1 X69.080 Y134.500 E13.26264 ; skirt
G1 X68.830 Y134.200 E13.28925 ; skirt
G1 X68.610 Y133.870 E13.31627 ; skirt
G1 X67.950 Y132.610 E13.41320 ; skirt
G1 X67.800 Y132.290 E13.43728 ; skirt
G1 X67.680 Y131.960 E13.46121 ; skirt
G1 X67.380 Y130.690 E13.55014 ; skirt
G1 X67.290 Y130.130 E13.58879 ; skirt
G1 X67.200 Y128.780 E13.68099 ; skirt
G1 X67.200 Y124.410 E13.97877 ; skirt
G1 X67.220 Y124.020 E14.00538 ; skirt
G1 X67.340 Y122.930 E14.08011 ; skirt
G1 X72.820 Y83.570 E16.78812 ; skirt
G1 X72.960 Y83.120 E16.82023 ; skirt
G1 X73.430 Y81.880 E16.91060 ; skirt
G1 X73.730 Y81.330 E16.95329 ; skirt
G1 X75.370 Y78.890 E17.15363 ; skirt
G1 X75.640 Y78.580 E17.18164 ; skirt
G1 X76.672 Y77.548 E17.28110 ; skirt
G1 F1800.000 E16.28110 ; retract
G92 E0 ; reset extrusion distance
G1 X72.817 Y118.925 F7800.000 ; move to first brim point
G1 F1800.000 E1.00000 ; compensate retraction
G1 X128.153 Y118.925 F756.000 E4.77076 ; brim
G1 X128.633 Y119.405 E4.81702 ; brim
G1 X128.633 Y120.097 E4.86412 ; brim
G1 X128.866 Y120.227 E4.88233 ; brim
G1 X130.264 Y122.512 E5.06487 ; brim
G1 X130.181 Y122.661 E5.07652 ; brim
G1 X130.440 Y124.989 E5.23613 ; brim
G1 X130.370 Y125.068 E5.24338 ; brim
G1 X130.370 Y129.297 E5.53156 ; brim
G1 X130.439 Y129.385 E5.53920 ; brim
G1 X129.887 Y131.665 E5.69903 ; brim
G1 X130.004 Y131.937 E5.71923 ; brim
G1 X127.908 Y134.144 E5.92658 ; brim
G1 X127.599 Y134.277 E5.94955 ; brim
G1 X125.970 Y134.277 E6.06051 ; brim
G1 X125.970 Y134.889 E6.10225 ; brim
G1 X125.490 Y135.370 E6.14852 ; brim
G1 X75.626 Y135.370 E9.54642 ; brim
G1 X75.487 Y135.345 E9.55605 ; brim
G1 X71.327 Y133.855 E9.85717 ; brim
G1 X71.026 Y133.339 E9.89791 ; brim
G1 X71.072 Y133.077 E9.91603 ; brim
G1 X70.855 Y132.945 E9.93329 ; brim
G1 X69.666 Y130.639 E10.11013 ; brim
G1 X69.756 Y130.490 E10.12197 ; brim
G1 X69.582 Y128.192 E10.27904 ; brim
G1 X69.630 Y128.140 E10.28388 ; brim
G1 X69.630 Y123.875 E10.57448 ; brim
G1 X69.554 Y123.770 E10.58332 ; brim
G1 X70.271 Y121.525 E10.74394 ; brim
G1 X70.149 Y121.211 E10.76691 ; brim
G1 X72.531 Y119.036 E10.98671 ; brim
G1 X72.741 Y118.955 E11.00202 ; brim
G1 F1800.000 E10.00202 ; retract
G92 E0 ; reset extrusion distance
G1 X121.174 Y126.628 F7800.000 ; move to first brim point
G1 F1800.000 E1.00000 ; compensate retraction
G1 X122.321 Y126.628 F756.000 E1.07813 ; brim
G1 X122.064 Y127.667 E1.15108 ; brim
G1 X121.435 Y127.667 E1.19393 ; brim
G1 X121.194 Y126.707 E1.26133 ; brim
G1 F1800.000 E0.26133 ; retract
G92 E0 ; reset extrusion distance
G1 X78.734 Y126.574 F7800.000 ; move to first brim point
G1 F1800.000 E1.00000 ; compensate retraction
G1 X78.471 Y126.574 F756.000 E1.01793 ; brim
G1 X78.249 Y126.796 E1.03932 ; brim
G1 X78.027 Y126.574 E1.06072 ; brim
G1 X77.766 Y126.574 E1.07847 ; brim
G1 X78.256 Y125.546 E1.15606 ; brim
G1 X78.699 Y126.500 E1.22773 ; brim
G1 F1800.000 E0.22773 ; retract
G92 E0 ; reset extrusion distance
G1 X84.852 Y116.115 F7800.000 ; move to first brim point
G1 F1800.000 E1.00000 ; compensate retraction
G1 X84.372 Y115.635 F756.000 E1.04626 ; brim
G1 X84.372 Y103.407 E1.87953 ; brim
G1 X84.630 Y103.148 E1.90444 ; brim
G1 X84.630 Y95.331 E2.43711 ; brim
G1 X84.510 Y95.331 E2.44533 ; brim
G1 X84.030 Y94.851 E2.49159 ; brim
G1 X84.030 Y94.239 E2.53334 ; brim
G1 X81.473 Y94.239 E2.70759 ; brim
G1 X80.992 Y93.759 E2.75386 ; brim
G1 X80.992 Y93.146 E2.79560 ; brim
G1 X79.710 Y93.146 E2.88299 ; brim
G1 X79.442 Y93.050 E2.90243 ; brim
G1 X76.832 Y90.900 E3.13285 ; brim
G1 X76.931 Y90.624 E3.15283 ; brim
G1 X75.714 Y88.437 E3.32334 ; brim
G1 X75.746 Y88.382 E3.32767 ; brim
G1 X75.380 Y86.015 E3.49091 ; brim
G1 X75.481 Y85.898 E3.50143 ; brim
G1 X75.025 Y83.873 E3.64285 ; brim
G1 X75.227 Y83.621 E3.66486 ; brim
G1 X75.184 Y83.543 E3.67093 ; brim
G1 X76.565 Y81.448 E3.84187 ; brim
G1 X76.465 Y81.208 E3.85959 ; brim
G1 X78.657 Y79.012 E4.07102 ; brim
G1 X78.959 Y78.887 E4.09325 ; brim
G1 X79.259 Y78.887 E4.11371 ; brim
G1 X79.259 Y78.275 E4.15546 ; brim
G1 X79.739 Y77.794 E4.20172 ; brim
G1 X83.905 Y77.794 E4.48560 ; brim
G1 X83.905 Y77.182 E4.52735 ; brim
G1 X84.385 Y76.702 E4.57361 ; brim
G1 X84.821 Y76.702 E4.60334 ; brim
G1 X85.328 Y74.941 E4.72820 ; brim
G1 X85.299 Y74.894 E4.73195 ; brim
G1 X86.379 Y72.663 E4.90087 ; brim
G1 X86.339 Y72.585 E4.90684 ; brim
G1 X87.965 Y70.329 E5.09635 ; brim
G1 X87.942 Y70.273 E5.10052 ; brim
G1 X90.177 Y68.082 E5.31379 ; brim
G1 X90.475 Y67.960 E5.33571 ; brim
G1 X90.706 Y67.960 E5.35145 ; brim
G1 X90.943 Y67.444 E5.39014 ; brim
G1 X94.106 Y65.821 E5.63247 ; brim
G1 X94.296 Y65.775 E5.64577 ; brim
G1 X97.682 Y65.775 E5.87647 ; brim
G1 X97.682 Y65.162 E5.91822 ; brim
G1 X98.162 Y64.682 E5.96448 ; brim
G1 X101.838 Y64.682 E6.21501 ; brim
G1 X102.318 Y65.162 E6.26127 ; brim
G1 X102.318 Y65.775 E6.30302 ; brim
G1 X106.773 Y65.775 E6.60659 ; brim
G1 X107.253 Y66.255 E6.65286 ; brim
G1 X107.253 Y66.867 E6.69461 ; brim
G1 X107.882 Y66.867 E6.73747 ; brim
G1 X108.121 Y66.942 E6.75451 ; brim
G1 X110.644 Y68.689 E6.96362 ; brim
G1 X110.788 Y69.108 E6.99378 ; brim
G1 X110.985 Y69.196 E7.00851 ; brim
G1 X112.968 Y71.415 E7.21132 ; brim
G1 X112.923 Y71.517 E7.21890 ; brim
G1 X114.229 Y73.746 E7.39497 ; brim
G1 X114.200 Y73.797 E7.39897 ; brim
G1 X115.063 Y76.045 E7.56305 ; brim
G1 X115.005 Y76.130 E7.57011 ; brim
G1 X115.544 Y77.794 E7.68934 ; brim
G1 X119.225 Y77.794 E7.94020 ; brim
G1 X119.448 Y77.859 E7.95603 ; brim
G1 X122.155 Y79.567 E8.17415 ; brim
G1 X122.338 Y80.048 E8.20924 ; brim
G1 X122.570 Y80.171 E8.22711 ; brim
G1 X124.103 Y82.442 E8.41379 ; brim
G1 X124.006 Y82.625 E8.42791 ; brim
G1 X124.632 Y84.848 E8.58528 ; brim
G1 X124.493 Y87.106 E8.73943 ; brim
G1 X124.588 Y87.243 E8.75080 ; brim
G1 X123.735 Y89.506 E8.91562 ; brim
G1 X123.801 Y89.643 E8.92603 ; brim
G1 X122.041 Y91.888 E9.12040 ; brim
G1 X121.682 Y92.053 E9.14737 ; brim
G1 X121.704 Y92.167 E9.15523 ; brim
G1 X121.420 Y92.684 E9.19543 ; brim
G1 X117.575 Y94.209 E9.47731 ; brim
G1 X117.422 Y94.239 E9.48789 ; brim
G1 X115.370 Y94.239 E9.62772 ; brim
G1 X115.370 Y102.500 E10.19069 ; brim
G1 X115.308 Y102.562 E10.19664 ; brim
G1 X115.777 Y104.543 E10.33540 ; brim
G1 X115.628 Y104.731 E10.35171 ; brim
G1 X115.628 Y108.390 E10.60104 ; brim
G1 X115.748 Y108.390 E10.60921 ; brim
G1 X116.228 Y108.870 E10.65547 ; brim
G1 X116.228 Y110.171 E10.74414 ; brim
G1 X115.748 Y110.651 E10.79040 ; brim
G1 X115.628 Y110.651 E10.79857 ; brim
G1 X115.628 Y113.876 E11.01830 ; brim
G1 X115.748 Y113.876 E11.02647 ; brim
G1 X116.228 Y114.356 E11.07273 ; brim
G1 X116.228 Y115.635 E11.15988 ; brim
G1 X115.748 Y116.115 E11.20615 ; brim
G1 X104.352 Y116.115 E11.98270 ; brim
G1 X103.872 Y115.635 E12.02896 ; brim
G1 X103.872 Y108.009 E12.54859 ; brim
G1 X103.723 Y107.822 E12.56490 ; brim
G1 X104.192 Y105.840 E12.70366 ; brim
G1 X104.130 Y105.778 E12.70961 ; brim
G1 X104.130 Y90.853 E13.72668 ; brim
G1 X103.723 Y90.338 E13.77138 ; brim
G1 X104.192 Y88.357 E13.91014 ; brim
G1 X104.130 Y88.295 E13.91609 ; brim
G1 X104.130 Y79.977 E14.48291 ; brim
G1 X103.726 Y79.614 E14.51995 ; brim
G1 X103.614 Y78.568 E14.59165 ; brim
G1 X103.981 Y78.058 E14.63446 ; brim
G1 X109.261 Y76.912 E15.00258 ; brim
G1 X108.652 Y75.480 E15.10860 ; brim
G1 X107.261 Y73.449 E15.27636 ; brim
G1 X107.072 Y73.382 E15.29003 ; brim
G1 X104.525 Y71.292 E15.51453 ; brim
G1 X103.039 Y71.292 E15.61575 ; brim
G1 X102.559 Y70.812 E15.66202 ; brim
G1 X102.559 Y70.199 E15.70376 ; brim
G1 X97.326 Y70.199 E16.06038 ; brim
G1 X97.118 Y70.680 E16.09610 ; brim
G1 X94.122 Y72.333 E16.32929 ; brim
G1 X93.923 Y72.384 E16.34323 ; brim
G1 X91.995 Y74.435 E16.53508 ; brim
G1 X91.955 Y74.453 E16.53809 ; brim
G1 X90.865 Y76.520 E16.69730 ; brim
G1 X90.738 Y76.597 E16.70743 ; brim
G1 X91.143 Y77.794 E16.79360 ; brim
G1 X95.292 Y77.794 E17.07629 ; brim
G1 X95.765 Y78.240 E17.12060 ; brim
G1 X95.908 Y80.611 E17.28243 ; brim
G1 X95.870 Y80.652 E17.28626 ; brim
G1 X95.870 Y88.829 E17.84351 ; brim
G1 X96.277 Y89.344 E17.88821 ; brim
G1 X95.808 Y91.325 E18.02697 ; brim
G1 X95.870 Y91.387 E18.03292 ; brim
G1 X95.870 Y106.426 E19.05775 ; brim
G1 X96.128 Y106.685 E19.08266 ; brim
G1 X96.128 Y108.390 E19.19887 ; brim
G1 X96.248 Y108.390 E19.20704 ; brim
G1 X96.728 Y108.870 E19.25330 ; brim
G1 X96.728 Y110.171 E19.34197 ; brim
G1 X96.248 Y110.651 E19.38823 ; brim
G1 X96.128 Y110.651 E19.39640 ; brim
G1 X96.128 Y113.876 E19.61613 ; brim
G1 X96.248 Y113.876 E19.62430 ; brim
G1 X96.728 Y114.356 E19.67057 ; brim
G1 X96.728 Y115.635 E19.75772 ; brim
G1 X96.248 Y116.115 E19.80398 ; brim
G1 X84.934 Y116.115 E20.57495 ; brim
G1 F1800.000 E19.57495 ; retract
G92 E0 ; reset extrusion distance
G1 X72.919 Y119.472 F7800.000 ; move to first brim point
G1 F1800.000 E1.00000 ; compensate retraction
G1 X127.926 Y119.472 F756.000 E4.74837 ; brim
G1 X128.086 Y119.632 E4.76379 ; brim
G1 X128.086 Y120.458 E4.82010 ; brim
G1 X127.980 Y120.564 E4.83035 ; brim
G1 X128.350 Y120.564 E4.85555 ; brim
G1 X128.474 Y120.634 E4.86527 ; brim
G1 X129.631 Y122.524 E5.01628 ; brim
G1 X129.503 Y122.752 E5.03408 ; brim
G1 X129.656 Y122.889 E5.04807 ; brim
G1 X129.870 Y124.807 E5.17957 ; brim
G1 X129.712 Y124.984 E5.19577 ; brim
G1 X129.823 Y125.095 E5.20649 ; brim
G1 X129.823 Y127.014 E5.33726 ; brim
G1 X129.690 Y127.147 E5.35010 ; brim
G1 X129.823 Y127.281 E5.36293 ; brim
G1 X129.823 Y129.200 E5.49370 ; brim
G1 X129.697 Y129.326 E5.50587 ; brim
G1 X129.845 Y129.515 E5.52223 ; brim
G1 X129.382 Y131.428 E5.65639 ; brim
G1 X129.239 Y131.541 E5.66881 ; brim
G1 X129.359 Y131.822 E5.68968 ; brim
G1 X127.589 Y133.686 E5.86484 ; brim
G1 X127.486 Y133.730 E5.87250 ; brim
G1 X125.318 Y133.730 E6.02027 ; brim
G1 X125.424 Y133.837 E6.03053 ; brim
G1 X125.424 Y134.663 E6.08683 ; brim
G1 X125.264 Y134.823 E6.10225 ; brim
G1 X75.627 Y134.815 E9.48469 ; brim
G1 X71.699 Y133.408 E9.76903 ; brim
G1 X71.599 Y133.236 E9.78261 ; brim
G1 X71.690 Y132.712 E9.81881 ; brim
G1 X71.778 Y132.638 E9.82671 ; brim
G1 X71.402 Y132.638 E9.85237 ; brim
G1 X71.271 Y132.558 E9.86282 ; brim
G1 X70.292 Y130.661 E10.00829 ; brim
G1 X70.429 Y130.436 E10.02626 ; brim
G1 X70.290 Y130.307 E10.03918 ; brim
G1 X70.145 Y128.388 E10.17028 ; brim
G1 X70.296 Y128.226 E10.18538 ; brim
G1 X70.177 Y128.107 E10.19683 ; brim
G1 X70.177 Y126.188 E10.32760 ; brim
G1 X70.310 Y126.055 E10.34043 ; brim
G1 X70.177 Y125.922 E10.35327 ; brim
G1 X70.177 Y124.003 E10.48404 ; brim
G1 X70.306 Y123.873 E10.49648 ; brim
G1 X70.159 Y123.672 E10.51347 ; brim
G1 X70.769 Y121.762 E10.65008 ; brim
G1 X70.909 Y121.660 E10.66194 ; brim
G1 X70.794 Y121.362 E10.68370 ; brim
G1 X72.843 Y119.501 E10.87232 ; brim
G1 F1800.000 E9.87232 ; retract
G92 E0 ; reset extrusion distance
G1 X77.694 Y124.989 F7800.000 ; move to first brim point
G1 F1800.000 E1.00000 ; compensate retraction
G1 X78.819 Y124.989 F756.000 E1.07666 ; brim
G1 X78.692 Y125.188 E1.09274 ; brim
G1 X79.576 Y127.089 E1.23559 ; brim
G1 X79.626 Y127.121 E1.23965 ; brim
G1 X78.697 Y127.121 E1.30294 ; brim
G1 X78.537 Y127.281 E1.31836 ; brim
G1 X78.537 Y128.107 E1.37467 ; brim
G1 X78.644 Y128.213 E1.38492 ; brim
G1 X77.854 Y128.213 E1.43870 ; brim
G1 X77.961 Y128.107 E1.44896 ; brim
G1 X77.961 Y127.281 E1.50526 ; brim
G1 X77.801 Y127.121 E1.52068 ; brim
G1 X76.867 Y127.121 E1.58430 ; brim
G1 X76.916 Y127.090 E1.58822 ; brim
G1 X77.821 Y125.190 E1.73162 ; brim
G1 X77.737 Y125.058 E1.74224 ; brim
G1 F1800.000 E0.74224 ; retract
G92 E0 ; reset extrusion distance
G1 X120.410 Y126.082 F7800.000 ; move to first brim point
G1 F1800.000 E1.00000 ; compensate retraction
G1 X121.547 Y126.082 F756.000 E1.07746 ; brim
G1 X121.707 Y125.922 E1.09288 ; brim
G1 X121.707 Y125.095 E1.14919 ; brim
G1 X121.601 Y124.989 E1.15944 ; brim
G1 X121.906 Y124.989 E1.18025 ; brim
G1 X121.800 Y125.095 E1.19050 ; brim
G1 X121.800 Y125.922 E1.24681 ; brim
G1 X121.960 Y126.082 E1.26223 ; brim
G1 X123.084 Y126.082 E1.33881 ; brim
G1 X123.004 Y126.144 E1.34571 ; brim
G1 X122.530 Y128.057 E1.48003 ; brim
G1 X122.652 Y128.213 E1.49353 ; brim
G1 X120.847 Y128.213 E1.61652 ; brim
G1 X120.969 Y128.057 E1.63005 ; brim
G1 X120.475 Y126.132 E1.76546 ; brim
G1 F1800.000 E0.76546 ; retract
G92 E0 ; reset extrusion distance
G1 X115.522 Y115.568 F7800.000 ; move to first brim point
G1 F1800.000 E1.00000 ; compensate retraction
G1 X104.578 Y115.568 F756.000 E1.74571 ; brim
G1 X104.418 Y115.408 E1.76113 ; brim
G1 X104.418 Y113.489 E1.89190 ; brim
G1 X104.552 Y113.356 E1.90473 ; brim
G1 X104.418 Y113.223 E1.91757 ; brim
G1 X104.418 Y111.304 E2.04834 ; brim
G1 X104.552 Y111.171 E2.06117 ; brim
G1 X104.418 Y111.038 E2.07401 ; brim
G1 X104.418 Y108.004 E2.28075 ; brim
G1 X104.525 Y107.897 E2.29100 ; brim
G1 X104.480 Y107.897 E2.29405 ; brim
G1 X104.316 Y107.690 E2.31206 ; brim
G1 X104.769 Y105.776 E2.44608 ; brim
G1 X104.850 Y105.712 E2.45313 ; brim
G1 X104.677 Y105.552 E2.46919 ; brim
G1 X104.677 Y103.633 E2.59996 ; brim
